public/images/marquee/sharepoint.svg

<svg xmlns="http://www.w3.org/2000/svg" fill="none" viewBox="0 0 37 36">
  <path fill="#CFD1D7" d="M18.8196 20.5715c5.6692 0 10.265-4.6051 10.265-10.2858C29.0846 4.60509 24.4888 0 18.8196 0 13.1505 0 8.55469 4.60509 8.55469 10.2857c0 5.6807 4.59581 10.2858 10.26491 10.2858Z"/>
  <path fill="#CFD1D7" d="M27.3744 29.1429c5.1967 0 9.4095-4.2214 9.4095-9.4286 0-5.2073-4.2128-9.4287-9.4095-9.4287-5.1968 0-9.4096 4.2214-9.4096 9.4287 0 5.2072 4.2128 9.4286 9.4096 9.4286Z"/>
  <path fill="#CFD1D7" d="M20.103 36.0002c4.0157 0 7.271-3.262 7.271-7.2858s-3.2553-7.2857-7.271-7.2857c-4.0156 0-7.271 3.2619-7.271 7.2857 0 4.0238 3.2554 7.2858 7.271 7.2858Z"/>
  <path fill="#FBFBFD" d="M20.53 9.28293V27.5744c-.0042.6356-.3886 1.2066-.9751 1.4486-.1868.0791-.3875.1199-.5903.12h-6.1247c-.0086-.1457-.0086-.2829-.0086-.4286-.0028-.1431.0029-.2862.0171-.4286.1566-2.7399 1.8411-5.1573 4.3541-6.2486V20.443c-5.5928-.8881-9.40818-6.1511-8.5219-11.75516.00614-.03881.01249-.07761.01909-.11634.04257-.28908.10257-.57532.17963-.85714H18.9646c.8632.00329 1.5621.70364 1.5654 1.56857Z" opacity=".1"/>
  <path fill="#FBFBFD" d="M18.1094 8.57129H8.69985C7.74931 14.1653 11.5044 19.4723 17.0871 20.4247c.169.0289.3388.0535.509.0738-2.6517 1.26-4.5841 4.8386-4.7484 7.7871-.0142.1424-.0199.2855-.0171.4286 0 .1457 0 .2829.0086.4286.0154.2881.0526.5746.1112.8571h5.1581c.6343-.0042 1.2041-.3894 1.4457-.9771.079-.1871.1197-.3883.1197-.5914V10.1399c-.0032-.86463-.7017-1.56484-1.5645-1.56861Z" opacity=".2"/>
  <path fill="#FBFBFD" d="M18.1093 8.57129H8.69978C7.74944 14.1658 11.5051 19.473 17.0883 20.4253c.1142.0195.2287.037.3435.0526-2.5662 1.3509-4.4224 4.9209-4.5833 7.8077h5.2608c.8619-.0065 1.5589-.705 1.5654-1.5685V10.1399c-.0033-.86496-.7022-1.56532-1.5654-1.56861Z" opacity=".2"/>
  <path fill="#FBFBFD" d="M17.2536 8.57129H8.6995C7.80213 13.8526 11.1047 18.9385 16.287 20.2559c-1.9623 2.2465-3.1658 5.0569-3.4387 8.0297h4.4053c.8632-.0032 1.5622-.7036 1.5654-1.5685V10.1399c-.0004-.86613-.701-1.56813-1.5654-1.56861Z" opacity=".2"/>
  <path fill="#CFD1D7" d="M1.56797 8.57129H17.2511c.866 0 1.568.70343 1.568 1.57111v15.7149c0 .8678-.702 1.5712-1.568 1.5712H1.56797C.702004 27.4285 0 26.7251 0 25.8573V10.1424c0-.86768.702004-1.57111 1.56797-1.57111Z"/>
  <path fill="#FBFBFD" d="M7.00377 17.808c-.36746-.2443-.67439-.5694-.89734-.9506-.21602-.3985-.32369-.847-.31223-1.3003-.01924-.6139.18748-1.2133.58082-1.6843.41333-.4716.94759-.8208 1.54487-1.0097.68072-.2245 1.39371-.3352 2.11031-.3275.9424-.0345 1.8834.0976 2.7801.39v1.9715c-.3896-.2365-.814-.4101-1.2575-.5143-.4812-.1182-.975-.1775-1.4704-.1766-.52251-.0192-1.04165.0909-1.51155.3206-.36278.1568-.59802.5144-.59878.9103-.00148.2401.09059.4714.25662.6446.19611.2042.42808.3704.68434.4903.28513.1422.71284.3314 1.28307.5674.0628.0199.124.0445.1831.0737.5613.2198 1.1027.4874 1.6184.7997.3906.2413.7184.5721.9564.9652.244.4455.3623.9493.3422 1.4571.0278.6302-.1646 1.2504-.5441 1.7538-.3782.4627-.8839.8037-1.4542.9805-.6707.2107-1.37071.3125-2.07351.3017-.63055.0029-1.26019-.0487-1.8819-.1543-.52495-.086-1.03724-.2369-1.52519-.4491v-2.0786c.46642.3338.98752.5833 1.53974.7372.55036.1718 1.12246.2636 1.69885.2725.53346.0339 1.06601-.0793 1.53971-.3274.3319-.1876.5338-.5431.5253-.9248.0022-.2657-.1027-.521-.2909-.708-.234-.2302-.505-.4194-.8015-.5598-.34215-.1714-.846-.3974-1.5115-.678-.52944-.2133-1.03636-.4789-1.51323-.7928Z"/>
</svg>

<svg width="37" height="36" viewBox="0 0 37 36" fill="none" xmlns="http://www.w3.org/2000/svg">
<path d="M18.8196 20.5715C24.4888 20.5715 29.0846 15.9664 29.0846 10.2857C29.0846 4.60509 24.4888 0 18.8196 0C13.1505 0 8.55469 4.60509 8.55469 10.2857C8.55469 15.9664 13.1505 20.5715 18.8196 20.5715Z" fill="#CFD1D7"/>
<path d="M27.3744 29.1429C32.5711 29.1429 36.7839 24.9215 36.7839 19.7143C36.7839 14.507 32.5711 10.2856 27.3744 10.2856C22.1776 10.2856 17.9648 14.507 17.9648 19.7143C17.9648 24.9215 22.1776 29.1429 27.3744 29.1429Z" fill="#CFD1D7"/>
<path d="M20.103 36.0002C24.1187 36.0002 27.374 32.7382 27.374 28.7144C27.374 24.6906 24.1187 21.4287 20.103 21.4287C16.0874 21.4287 12.832 24.6906 12.832 28.7144C12.832 32.7382 16.0874 36.0002 20.103 36.0002Z" fill="#CFD1D7"/>
<path opacity="0.1" d="M20.53 9.28293V27.5744C20.5258 28.21 20.1414 28.781 19.5549 29.023C19.3681 29.1021 19.1674 29.1429 18.9646 29.143H12.8399C12.8313 28.9973 12.8313 28.8601 12.8313 28.7144C12.8285 28.5713 12.8342 28.4282 12.8484 28.2858C13.005 25.5459 14.6895 23.1285 17.2025 22.0372V20.443C11.6097 19.5549 7.79432 14.2919 8.6806 8.68784C8.68674 8.64903 8.69309 8.61023 8.69969 8.5715C8.74226 8.28242 8.80226 7.99618 8.87932 7.71436H18.9646C19.8278 7.71765 20.5267 8.418 20.53 9.28293Z" fill="#FBFBFD"/>
<path opacity="0.2" d="M18.1094 8.57129H8.69985C7.74931 14.1653 11.5044 19.4723 17.0871 20.4247C17.2561 20.4536 17.4259 20.4782 17.5961 20.4985C14.9444 21.7585 13.012 25.3371 12.8477 28.2856C12.8335 28.428 12.8278 28.5711 12.8306 28.7142C12.8306 28.8599 12.8306 28.9971 12.8392 29.1428C12.8546 29.4309 12.8918 29.7174 12.9504 29.9999H18.1085C18.7428 29.9957 19.3126 29.6105 19.5542 29.0228C19.6332 28.8357 19.6739 28.6345 19.6739 28.4314V10.1399C19.6707 9.27527 18.9722 8.57506 18.1094 8.57129Z" fill="#FBFBFD"/>
<path opacity="0.2" d="M18.1093 8.57129H8.69978C7.74944 14.1658 11.5051 19.473 17.0883 20.4253C17.2025 20.4448 17.317 20.4623 17.4318 20.4779C14.8656 21.8288 13.0094 25.3988 12.8485 28.2856H18.1093C18.9712 28.2791 19.6682 27.5806 19.6747 26.7171V10.1399C19.6714 9.27494 18.9725 8.57458 18.1093 8.57129Z" fill="#FBFBFD"/>
<path opacity="0.2" d="M17.2536 8.57129H8.6995C7.80213 13.8526 11.1047 18.9385 16.287 20.2559C14.3247 22.5024 13.1212 25.3128 12.8483 28.2856H17.2536C18.1168 28.2824 18.8158 27.582 18.819 26.7171V10.1399C18.8186 9.27377 18.118 8.57177 17.2536 8.57129Z" fill="#FBFBFD"/>
<path d="M1.56797 8.57129H17.2511C18.1171 8.57129 18.8191 9.27472 18.8191 10.1424V25.8573C18.8191 26.7251 18.1171 27.4285 17.2511 27.4285H1.56797C0.702004 27.4285 0 26.7251 0 25.8573V10.1424C0 9.27472 0.702004 8.57129 1.56797 8.57129Z" fill="#CFD1D7"/>
<path d="M7.00377 17.808C6.63631 17.5637 6.32938 17.2386 6.10643 16.8574C5.89041 16.4589 5.78274 16.0104 5.7942 15.5571C5.77496 14.9432 5.98168 14.3438 6.37502 13.8728C6.78835 13.4012 7.32261 13.052 7.91989 12.8631C8.60061 12.6386 9.3136 12.5279 10.0302 12.5356C10.9726 12.5011 11.9136 12.6332 12.8103 12.9256V14.8971C12.4207 14.6606 11.9963 14.487 11.5528 14.3828C11.0716 14.2646 10.5778 14.2053 10.0824 14.2062C9.55989 14.187 9.04075 14.2971 8.57085 14.5268C8.20807 14.6836 7.97283 15.0412 7.97207 15.4371C7.97059 15.6772 8.06266 15.9085 8.22869 16.0817C8.4248 16.2859 8.65677 16.4521 8.91303 16.572C9.19816 16.7142 9.62587 16.9034 10.1961 17.1394C10.2589 17.1593 10.3201 17.1839 10.3792 17.2131C10.9405 17.4329 11.4819 17.7005 11.9976 18.0128C12.3882 18.2541 12.716 18.5849 12.954 18.978C13.198 19.4235 13.3163 19.9273 13.2962 20.4351C13.324 21.0653 13.1316 21.6855 12.7521 22.1889C12.3739 22.6516 11.8682 22.9926 11.2979 23.1694C10.6272 23.3801 9.92719 23.4819 9.22439 23.4711C8.59384 23.474 7.9642 23.4224 7.34249 23.3168C6.81754 23.2308 6.30525 23.0799 5.8173 22.8677V20.7891C6.28372 21.1229 6.80482 21.3724 7.35704 21.5263C7.9074 21.6981 8.4795 21.7899 9.05589 21.7988C9.58935 21.8327 10.1219 21.7195 10.5956 21.4714C10.9275 21.2838 11.1294 20.9283 11.1209 20.5466C11.1231 20.2809 11.0182 20.0256 10.83 19.8386C10.596 19.6084 10.325 19.4192 10.0285 19.2788C9.68635 19.1074 9.1825 18.8814 8.517 18.6008C7.98756 18.3875 7.48064 18.1219 7.00377 17.808Z" fill="#FBFBFD"/>
</svg>
